!!!ONB: MCCC : ILB0181_02 : Extracted Monophonic Melody
!!!COM: Beethoven, Ludwig van
!!!OPR: Piano Sonata No.20
!!!OMV: 2
!!!SCT: Op.49 No.2
!!!ODT: 1795///
**kern
*thru
*Ipiano
*staff1
*clefG2
*k[f#]
*G:
*M3/4
*MM132
8.g
16f#
=1
2f#
8.f#
16g
=2
2g
8.g
16b
=3
[4dd
8dd]
8ee
8dd
8cc
=4
4b
8g
8r
8.g
16f#
=5
2f#
8.f#
16g
=6
2g
8.g
16b
=7
4.dd
8cc#
8cc
8a
=8
4g
4r
8.b
16b
=9
4b
8cc
8r
8.cc
16cc
=10
4cc
8b
8r
8.b
16b
=11
8b
8a
8g#
8a
8dd#
8ee
=12
4g
8f#
8r
8.gg
16ff#
=13
2ff#
8.ff#
16gg
=14
2gg
8.gg
16bb
=15
[4ddd
8ddd]
8eee
8ddd
8ccc
=16
4bb
8gg
8r
8.gg
16ff#
=17
2ff#
8.ff#
16gg
=18
2gg
8.gg
16bb
=19
4ddd
16ddd
16ccc#
16ddd
16ccc#
16ddd
16ccc
16bb
16aa
=20
4gg
4r
4dd
=21
4gg
4r
4ff#
=22
4ee
4r
4dd
=23
4dd
4dd
4dd
=24
4dd
4r
4r
=25
16r
16dd
16ee
16ff#
16gg
16aa
16bb
16ccc#
8ddd
8ddd
=26
16r
16dd
16ee
16ff#
16gg
16aa
16bb
16ccc#
8ddd
8ddd
=27
8bb
8aa
8gg
8ff#
8ee
8dd
=28
4.aa
16bb
16aa
8gg
16aa
16gg
=29
8ff#
16gg
16ff#
8ee
16ff#
16ee
8dd
16ee
16dd
=30
4cc#
8r
8cc#
16dd
16cc#
16b
16cc#
=31
4dd
8r
8dd
16ee
16dd
16cc#
16dd
=32
4.aa
16bb
16aa
8gg
16aa
16gg
=33
8ff#
16gg
16ff#
8ee
16ff#
16ee
8dd
16ee
16dd
=34
4cc#
8r
8cc#
16ee
16dd
16cc#
16dd
=35
8.ee
16gg
4dd
4cc#
=36
8dd
16ee
16ff#
16gg
16aa
16bb
16ccc#
8ddd
8ddd
=37
8ddd
8aa
8aa
8ff#
8ff#
8dd
=38
2dd
8.ee
16cc#
=39
8dd
16ee
16ff#
16gg
16aa
16bb
16ccc#
8ddd
8ddd
=40
12ddd
12aa
12aa
12aa
12ff#
12ff#
12ff#
12dd
12dd
=41
2dd
8.ee
16cc#
=42
8.dd
16dd
8.cc#
16dd
8.cc
16dd
=43
8.b
16dd
8.b
16dd
8.cc#
16ee
=44
8.dd
16dd
8.cc#
16dd
8.cc
16dd
=45
8.b
16dd
8.b
16dd
8.cc#
16ee
=46
8.dd
16dd
8.cc#
16dd
8.cc
16dd
=47
8.b
16dd
8.a
16dd
8.g
16f#
=48
2f#
8.f#
16g
=49
2g
8.g
16b
=50
[4dd
8dd]
8ee
8dd
8cc
=51
4b
8g
8r
8.g
16f#
=52
2f#
8.f#
16g
=53
2g
8.g
16b
=54
4.dd
8cc#
8cc
8a
=55
4g
4r
8.b
16b
=56
4b
8cc
8r
8.cc
16cc
=57
4cc
8b
8r
8.b
16b
=58
8b
8a
8g#
8a
8dd#
8ee
=59
4g
8f#
8r
8.gg
16ff#
=60
2ff#
8.ff#
16gg
=61
2gg
8.gg
16bb
=62
[4ddd
8ddd]
8eee
8ddd
8ccc
=63
4bb
8gg
8r
8.gg
16ff#
=64
2ff#
8.ff#
16gg
=65
2gg
8.gg
16bb
=66
4ddd
16ddd
16ccc#
16ddd
16ccc#
16ddd
16ccc
16bb
16aa
=67
4gg
4r
8.cc
16ee
=68
*k[]
4.gg
8ee
8ff
8dd
=69
4cc
8cc
8g
8cc
8ee
=70
4.gg
8ee
8ff
8dd
=71
4cc
8r
8cc
8b
8cc
=72
8dd
8b
8g
8dd
8cc
8dd
=73
8ee
8cc
8g
8ee
8dd
8ee
=74
8ff
8gg
8aa
8ee
8ff
8dd
=75
4cc
8b
8g
8cc
8ee
=76
4.gg
8ee
8ff
8dd
=77
4cc
8cc
8g
8cc
8ee
=78
4.gg
8ee
8ff
8dd
=79
4cc
8r
8cc
8b
8cc
=80
8dd
8b
8g
8dd
8cc
8dd
=81
8ee
8cc
8g
8ee
8dd
8ee
=82
8ff#
8cc
8a
8ff#
8ee
8ff#
=83
8gg
8dd
8b
8gg
8aa
8bb
=84
8ccc
8bb
8aa
8gg
8ff#
8ee
=85
8dd
8cc
8b
8a
8g
8f#
=86
*k[f#]
8e
8d
4r
4r
=87
4r
4r
8.g
16f#
=88
2f#
8.f#
16g
=89
2g
8.g
16b
=90
[4dd
8dd]
8ee
8dd
8cc
=91
4b
8g
8r
8.g
16f#
=92
2f#
8.f#
16g
=93
2g
8.g
16b
=94
4.dd
8cc#
8cc
8a
=95
4g
4r
8.b
16b
=96
4b
8cc
8r
8.cc
16cc
=97
4cc
8b
8r
8.b
16b
=98
8b
8a
8g#
8a
8dd#
8ee
=99
4g
8f#
8r
8.gg
16ff#
=100
2ff#
8.ff#
16gg
=101
2gg
8.gg
16bb
=102
[4ddd
8ddd]
8eee
8ddd
8ccc
=103
4bb
8gg
8r
8.gg
16ff#
=104
2ff#
8.ff#
16gg
=105
2gg
8.gg
16bb
=106
4ddd
16ddd
16ccc#
16ddd
16ccc#
16ddd
16ccc
16bb
16aa
=107
4gg
4r
8.gg
16ff
=108
4ff
4r
8.ff
16ee
=109
4ee
4r
8.ee
16dd
=110
4dd
4r
8.dd
16cc
=111
4cc
4r
8.cc
16a
=112
8g
8f#
4.dd
8g
=113
8g
8f#
4.dd
8b
=114
8r
16a
16cc
8r
16g
16b
8r
16f#
16a
=115
16r
16g
16a
16b
16cc
16dd
16ee
16ff#
16gg
16aa
16bb
16gg
=116
8ff#
4ddd
8ddd
16ccc
16bb
16aa
16gg
=117
16ff#
16ddd
16ccc#
16ddd
16ccc#
16ddd
16ccc#
16ddd
16ccc
16bb
16aa
16gg
=118
16ddd#
16eee
16ddd#
16eee
4gg
16bb
16aa
16gg
16aa
=119
4gg
4r
4f#
=120
4g
4r
==
*-
